images/case-scada-drilling-system-icon.svg

<svg width="18" height="22" viewBox="0 0 18 22" fill="none" xmlns="http://www.w3.org/2000/svg">
<path d="M13.0009 6L3.82922 11.1574" stroke="#D4E5FB" stroke-width="0.5"/>
<line x1="11.1408" y1="1.1918" x2="5.16035" y2="6.1918" stroke="#D4E5FB" stroke-width="0.5"/>
<line x1="5.12622" y1="5.7842" x2="14.1265" y2="11.0482" stroke="#D4E5FB" stroke-width="0.5"/>
<line y1="-0.25" x2="13.7046" y2="-0.25" transform="matrix(0.874157 0.485643 -0.874157 0.485643 4.04156 11.2889)" stroke="#D4E5FB" stroke-width="0.5"/>
<line x1="14.1246" y1="11.2167" x2="2.08602" y2="18.1389" stroke="#D4E5FB" stroke-width="0.5"/>
<path d="M7.04627 18.5856H10.8463V19.5967H7.04627L7.04627 18.5856Z" fill="#2A7DEC" stroke="#2A7DEC" stroke-width="0.0222222"/>
<path d="M6.51111 19.4728H11.4889V20.4762H6.51111L6.51111 19.4728Z" fill="#2A7DEC" stroke="#2A7DEC" stroke-width="0.0222222"/>
<path d="M8.51111 1.01111H9.48889V4.98889H8.51111L8.51111 1.01111Z" fill="#2A7DEC" stroke="#D4E5FB" stroke-width="0.0222222"/>
<line x1="6.19181" y1="0.847134" x2="13.1625" y2="6.81002" stroke="#D4E5FB" stroke-width="0.5"/>
<path d="M6.48653 1.04899C6.49449 1.02005 6.5208 1 6.55081 1H11.4492C11.4792 1 11.5055 1.02005 11.5135 1.04899L17 21H1L6.48653 1.04899Z" stroke="#2A7DEC" stroke-linejoin="round"/>
<path d="M8.51892 13.3936C8.58987 13.2843 8.63582 13.1921 8.65727 13.0977C8.67649 13.013 8.67561 12.9284 8.65778 12.83H9.56406C9.58177 12.937 9.58978 13.1635 9.46921 13.5267C9.42923 13.6472 9.34063 13.7623 9.22608 13.8769C9.1304 13.9726 9.01876 14.0659 8.90566 14.1604C8.88345 14.179 8.86119 14.1976 8.83898 14.2163C8.70444 14.3294 8.57205 14.4452 8.47106 14.5672C8.37007 14.6892 8.29811 14.8202 8.28851 14.9642C8.27002 15.2415 8.34784 15.4376 8.46534 15.5759C8.58216 15.7133 8.73608 15.7911 8.86631 15.8366C8.96728 15.8718 9.17352 15.8964 9.36415 15.8298C9.46012 15.7963 9.55283 15.7395 9.62566 15.6487C9.69854 15.5579 9.75015 15.4348 9.76657 15.271C9.77703 15.1667 9.78479 15.0753 9.79146 14.9966C9.79503 14.9545 9.79829 14.9161 9.80149 14.8812C9.81081 14.7797 9.8196 14.7096 9.83342 14.6637C9.84723 14.6179 9.86247 14.6073 9.87769 14.605C9.88779 14.6034 9.90224 14.6046 9.92326 14.6109C9.94411 14.6173 9.96935 14.628 10.0003 14.6435C10.3399 14.8128 10.4667 15.0885 10.4937 15.3584C10.521 15.63 10.4468 15.8948 10.3846 16.0344C10.1255 16.6157 9.59418 16.97 8.9207 16.97C8.51667 16.97 8.20767 16.8984 7.95904 16.7687C7.71051 16.6391 7.52014 16.4502 7.35502 16.2122C7.22268 16.0215 7.09016 15.7066 7.05727 15.3554C7.02443 15.0047 7.09103 14.6198 7.35394 14.2856C7.60049 13.9722 7.84369 13.8197 8.04784 13.7116C8.08471 13.6921 8.12088 13.6738 8.15577 13.6561C8.21657 13.6253 8.27351 13.5964 8.32364 13.5667C8.40359 13.5192 8.47147 13.4667 8.51892 13.3936Z" fill="#2A7DEC" stroke="#2A7DEC" stroke-width="0.06"/>
<path d="M7.74241 12.8415C7.68244 12.803 7.61016 12.7332 7.52921 12.6339C7.44857 12.5349 7.36053 12.4081 7.26877 12.2573C7.08527 11.9557 6.88773 11.5595 6.70546 11.1008C6.34083 10.1832 6.03824 9.01826 6.03014 7.86415C6.01719 6.02193 6.92959 5.31036 7.5657 5.14736C7.88728 5.06496 8.47755 5.02778 9.05678 5.0301C9.63627 5.03242 10.1978 5.07424 10.4623 5.14722C10.985 5.29148 11.97 6.1092 11.97 7.86436C11.97 8.82761 11.6751 9.96679 11.3069 10.9198C11.1229 11.396 10.9209 11.8249 10.729 12.1612C10.5363 12.4988 10.3559 12.7392 10.2161 12.8426C10.1825 12.8675 10.1249 12.8912 10.0457 12.9124C9.9672 12.9334 9.87041 12.9512 9.76083 12.9656C9.54172 12.9945 9.27363 13.0094 9.00319 13.01C8.73277 13.0105 8.4608 12.9967 8.23393 12.9682C8.12049 12.9539 8.01878 12.936 7.93442 12.9146C7.84953 12.893 7.78433 12.8683 7.74241 12.8415Z" fill="#2A7DEC" stroke="#2A7DEC" stroke-width="0.06"/>
<circle cx="9.02169" cy="7.97006" r="2.12996" fill="#D4E5FB" stroke="#D4E5FB" stroke-width="0.0600774"/>
<mask id="path-15-inside-1_11612_83673" fill="white">
<path d="M11.1817 7.97006C11.1817 9.16299 10.2146 10.1301 9.02169 10.1301C7.82876 10.1301 6.86169 9.16299 6.86169 7.97006C6.86169 6.77712 7.82876 5.81006 9.02169 5.81006C10.2146 5.81006 11.1817 6.77712 11.1817 7.97006ZM7.19816 7.97006C7.19816 8.97717 8.01459 9.79359 9.02169 9.79359C10.0288 9.79359 10.8452 8.97717 10.8452 7.97006C10.8452 6.96295 10.0288 6.14653 9.02169 6.14653C8.01459 6.14653 7.19816 6.96295 7.19816 7.97006Z"/>
</mask>
<path d="M11.1817 7.97006C11.1817 9.16299 10.2146 10.1301 9.02169 10.1301C7.82876 10.1301 6.86169 9.16299 6.86169 7.97006C6.86169 6.77712 7.82876 5.81006 9.02169 5.81006C10.2146 5.81006 11.1817 6.77712 11.1817 7.97006ZM7.19816 7.97006C7.19816 8.97717 8.01459 9.79359 9.02169 9.79359C10.0288 9.79359 10.8452 8.97717 10.8452 7.97006C10.8452 6.96295 10.0288 6.14653 9.02169 6.14653C8.01459 6.14653 7.19816 6.96295 7.19816 7.97006Z" fill="#2A7DEC" stroke="#2A7DEC" stroke-width="0.12" mask="url(#path-15-inside-1_11612_83673)"/>
</svg>

<svg width="18" height="22" fill="none" xmlns="http://www.w3.org/2000/svg"><path d="m13 6-9.17 5.157M11.141 1.192l-5.981 5M5.126 5.784l9.001 5.264" stroke="#D4E5FB" stroke-width=".5"/><path transform="scale(1.23624 .6868) rotate(45 -18.206 12.165)" stroke="#D4E5FB" stroke-width=".5" d="M0-.25h13.705"/><path stroke="#D4E5FB" stroke-width=".5" d="M14.125 11.217 2.086 18.139"/><path d="M7.046 18.586h3.8v1.01h-3.8v-1.01Z" fill="#2A7DEC" stroke="#2A7DEC" stroke-width=".022"/><path d="M6.511 19.473h4.978v1.003H6.51v-1.003Z" fill="#2A7DEC" stroke="#2A7DEC" stroke-width=".022"/><path d="M8.511 1.011h.978V4.99H8.51V1.01Z" fill="#2A7DEC" stroke="#D4E5FB" stroke-width=".022"/><path stroke="#D4E5FB" stroke-width=".5" d="m6.192.847 6.97 5.963"/><path d="M6.487 1.049A.067.067 0 0 1 6.55 1h4.898c.03 0 .056.02.065.049L17 21H1L6.487 1.049Z" stroke="#2A7DEC" stroke-linejoin="round"/><path d="M8.519 13.394a.925.925 0 0 0 .138-.296.65.65 0 0 0 0-.268h.907c.018.107.026.334-.095.697a.946.946 0 0 1-.243.35 4.904 4.904 0 0 1-.32.283l-.067.056a2.915 2.915 0 0 0-.368.351.707.707 0 0 0-.182.397c-.019.277.059.474.176.612.117.137.271.215.401.26.101.036.308.06.498-.006a.57.57 0 0 0 .262-.181.7.7 0 0 0 .14-.378 17.224 17.224 0 0 0 .035-.39c.01-.101.019-.171.032-.217.014-.046.03-.057.045-.059.01-.002.024 0 .045.006a.854.854 0 0 1 .57.747c.028.272-.046.537-.108.676-.26.582-.79.936-1.464.936-.404 0-.713-.072-.962-.201a1.676 1.676 0 0 1-.604-.557 1.88 1.88 0 0 1-.298-.857c-.033-.35.034-.735.297-1.07.246-.313.49-.465.694-.573l.108-.056c.06-.03.118-.06.168-.09.08-.047.147-.1.195-.172Z" fill="#2A7DEC" stroke="#2A7DEC" stroke-width=".06"/><path d="M7.742 12.841a1.005 1.005 0 0 1-.213-.207 3.421 3.421 0 0 1-.26-.377 7.852 7.852 0 0 1-.564-1.156c-.364-.918-.667-2.083-.675-3.237-.013-1.842.9-2.554 1.536-2.717.321-.082.912-.12 1.49-.117.58.002 1.142.044 1.406.117.523.144 1.508.962 1.508 2.717 0 .964-.295 2.103-.663 3.056a9.41 9.41 0 0 1-.578 1.241c-.193.338-.373.578-.513.682a.535.535 0 0 1-.17.07 2.285 2.285 0 0 1-.285.053c-.22.029-.487.043-.758.044-.27 0-.542-.013-.77-.042a2.539 2.539 0 0 1-.299-.053.689.689 0 0 1-.192-.073Z" fill="#2A7DEC" stroke="#2A7DEC" stroke-width=".06"/><circle cx="9.022" cy="7.97" r="2.13" fill="#D4E5FB" stroke="#D4E5FB" stroke-width=".06"/><mask id="a" fill="#fff"><path d="M11.182 7.97a2.16 2.16 0 1 1-4.32 0 2.16 2.16 0 0 1 4.32 0Zm-3.984 0a1.824 1.824 0 1 0 3.647 0 1.824 1.824 0 0 0-3.647 0Z"/></mask><path d="M11.182 7.97a2.16 2.16 0 1 1-4.32 0 2.16 2.16 0 0 1 4.32 0Zm-3.984 0a1.824 1.824 0 1 0 3.647 0 1.824 1.824 0 0 0-3.647 0Z" fill="#2A7DEC" stroke="#2A7DEC" stroke-width=".12" mask="url(#a)"/></svg>
